dist/img/svg/icon-comments.svg

<svg width="15" height="14" viewBox="0 0 15 14" fill="none" xmlns="http://www.w3.org/2000/svg">
<path d="M14.9845 6.56344C14.7516 3.02079 11.6874 0.185663 7.8882 0.0100358C7.7588 0.00501792 7.6294 0 7.5 0C3.35921 0 0 2.76487 0 6.17706C0 9.58925 3.35921 12.3541 7.5 12.3541V14C10.2329 14 15 10.8688 15 7C15 6.85448 14.9948 6.70896 14.9845 6.56344ZM3.95445 7.73262C3.28675 7.73262 2.74327 7.20573 2.74327 6.55842C2.74327 5.91111 3.28675 5.38423 3.95445 5.38423C4.62215 5.38423 5.16563 5.91111 5.16563 6.55842C5.16046 7.20573 4.62215 7.73262 3.95445 7.73262ZM7.5 7.73262C6.8323 7.73262 6.28882 7.20573 6.28882 6.55842C6.28882 5.91111 6.8323 5.38423 7.5 5.38423C8.1677 5.38423 8.71118 5.91111 8.71118 6.55842C8.706 7.20573 8.1677 7.73262 7.5 7.73262ZM11.0455 7.73262C10.3778 7.73262 9.83437 7.20573 9.83437 6.55842C9.83437 5.91111 10.3778 5.38423 11.0455 5.38423C11.7184 5.38423 12.2567 5.91111 12.2567 6.55842C12.2516 7.20573 11.7184 7.73262 11.0455 7.73262Z" fill="#BDBDBD"/>
</svg>

<svg width="15" height="14" viewBox="0 0 15 14" fill="none" xmlns="http://www.w3.org/2000/svg"><path d="M14.985 6.563C14.752 3.021 11.687.186 7.888.01 7.758.005 7.63 0 7.5 0 3.36 0 0 2.765 0 6.177c0 3.412 3.36 6.177 7.5 6.177V14c2.733 0 7.5-3.131 7.5-7 0-.146-.005-.291-.015-.437zm-11.03 1.17c-.668 0-1.212-.527-1.212-1.175 0-.647.544-1.174 1.211-1.174.668 0 1.212.527 1.212 1.174a1.198 1.198 0 01-1.212 1.175zm3.545 0c-.668 0-1.211-.527-1.211-1.175 0-.647.543-1.174 1.211-1.174s1.211.527 1.211 1.174A1.198 1.198 0 017.5 7.733zm3.546 0c-.668 0-1.212-.527-1.212-1.175 0-.647.544-1.174 1.212-1.174.672 0 1.21.527 1.21 1.174a1.195 1.195 0 01-1.21 1.175z" fill="#BDBDBD"/></svg>
